{
  "compressionlevel": -1,
  "height": 14,
  "infinite": false,
  "orientation": "orthogonal",
  "renderorder": "right-down",
  "tileheight": 64,
  "tilewidth": 64,
  "width": 20,
  "tiledversion": "1.12.2",
  "type": "map",
  "version": "1.10",
  "nextlayerid": 6,
  "nextobjectid": 12,
  "layers": [
    {
      "id": 1,
      "name": "background",
      "type": "imagelayer",
      "image": "/assets/maps/south-pole/background.webp"
    },
    {
      "id": 2,
      "name": "terrain",
      "type": "tilelayer",
      "width": 20,
      "height": 14,
      "data": [
        1, 1, 1, 1, 1, 1, 1, 1, 1, 1, 1, 1, 1, 1, 1, 1, 1, 1, 1, 1,
        1, 1, 1, 1, 1, 1, 1, 1, 1, 1, 1, 1, 1, 1, 1, 1, 1, 1, 1, 1,
        1, 1, 1, 1, 1, 1, 1, 1, 1, 1, 1, 1, 1, 1, 1, 1, 1, 1, 1, 1,
        1, 1, 1, 1, 1, 1, 1, 1, 1, 1, 1, 1, 1, 1, 1, 1, 1, 1, 1, 1,
        1, 1, 1, 1, 1, 1, 1, 1, 1, 1, 1, 1, 1, 1, 1, 1, 1, 1, 1, 1,
        1, 1, 1, 1, 1, 1, 1, 1, 1, 1, 1, 1, 1, 1, 1, 1, 1, 1, 1, 1,
        1, 1, 1, 1, 1, 1, 1, 1, 1, 1, 1, 1, 1, 1, 1, 1, 1, 1, 1, 1,
        1, 1, 1, 1, 1, 1, 1, 1, 1, 1, 1, 1, 1, 1, 1, 1, 1, 1, 1, 1,
        1, 1, 1, 1, 1, 1, 1, 1, 1, 1, 1, 1, 1, 1, 1, 1, 1, 1, 1, 1,
        1, 1, 1, 1, 1, 1, 1, 1, 1, 1, 1, 1, 1, 1, 1, 1, 1, 1, 1, 1,
        1, 1, 1, 1, 1, 1, 1, 1, 1, 1, 1, 1, 1, 1, 1, 1, 1, 1, 1, 1,
        1, 1, 1, 1, 1, 1, 1, 1, 1, 1, 1, 1, 1, 1, 1, 1, 1, 1, 1, 1,
        1, 1, 1, 1, 1, 1, 1, 1, 1, 1, 1, 1, 1, 1, 1, 1, 1, 1, 1, 1,
        1, 1, 1, 1, 1, 1, 1, 1, 1, 1, 1, 1, 1, 1, 1, 1, 1, 1, 1, 1
      ]
    },
    {
      "id": 3,
      "name": "hazards",
      "type": "tilelayer",
      "width": 20,
      "height": 14,
      "data": [
        0, 0, 0, 0, 0, 0, 0, 0, 0, 0, 0, 0, 0, 0, 0, 0, 0, 0, 0, 0,
        0, 0, 0, 0, 0, 0, 0, 0, 0, 0, 0, 0, 0, 0, 0, 0, 0, 0, 0, 0,
        0, 0, 0, 0, 0, 0, 0, 2, 2, 2, 0, 0, 0, 0, 0, 0, 0, 0, 0, 0,
        0, 0, 0, 0, 0, 0, 0, 2, 2, 2, 0, 0, 0, 0, 0, 0, 0, 0, 0, 0,
        0, 0, 0, 0, 0, 0, 0, 2, 2, 2, 0, 0, 0, 0, 0, 0, 0, 0, 0, 0,
        0, 0, 0, 0, 0, 0, 0, 0, 2, 2, 2, 0, 0, 0, 0, 0, 0, 0, 0, 0,
        0, 0, 0, 0, 0, 0, 0, 0, 2, 2, 2, 0, 0, 0, 0, 0, 0, 0, 0, 0,
        0, 0, 0, 0, 0, 0, 0, 0, 2, 2, 2, 0, 0, 0, 0, 0, 0, 0, 0, 0,
        0, 0, 0, 0, 0, 0, 0, 0, 0, 2, 2, 2, 0, 0, 0, 0, 0, 0, 0, 0,
        0, 0, 0, 0, 0, 0, 0, 0, 0, 2, 2, 2, 0, 0, 0, 0, 0, 0, 0, 0,
        0, 0, 0, 0, 0, 0, 0, 0, 0, 2, 2, 2, 0, 0, 0, 0, 0, 0, 0, 0,
        0, 0, 0, 0, 0, 0, 0, 0, 0, 0, 0, 0, 0, 0, 0, 0, 0, 0, 0, 0,
        0, 0, 0, 0, 0, 0, 0, 0, 0, 0, 0, 0, 0, 0, 0, 0, 0, 0, 0, 0,
        0, 0, 0, 0, 0, 0, 0, 0, 0, 0, 0, 0, 0, 0, 0, 0, 0, 0, 0, 0
      ]
    },
    {
      "id": 4,
      "name": "obstacles",
      "type": "tilelayer",
      "width": 20,
      "height": 14,
      "data": [
        0, 0, 0, 0, 0, 3, 0, 0, 3, 0, 3, 0, 0, 0, 0, 0, 0, 0, 0, 0,
        0, 0, 0, 0, 0, 0, 0, 0, 0, 0, 0, 0, 0, 0, 0, 0, 0, 0, 0, 0,
        0, 0, 0, 0, 0, 0, 0, 0, 0, 0, 0, 0, 0, 0, 3, 0, 0, 0, 0, 3,
        3, 0, 0, 0, 0, 0, 0, 0, 0, 0, 0, 0, 0, 0, 0, 0, 0, 0, 0, 0,
        0, 0, 0, 3, 0, 0, 0, 0, 0, 0, 0, 0, 0, 0, 0, 0, 0, 0, 0, 0,
        0, 0, 0, 0, 0, 0, 0, 0, 0, 0, 0, 0, 0, 0, 0, 0, 0, 0, 0, 0,
        0, 0, 0, 0, 0, 0, 0, 0, 0, 0, 0, 0, 0, 0, 0, 0, 0, 0, 0, 0,
        0, 0, 0, 0, 0, 0, 0, 0, 0, 0, 0, 0, 0, 3, 0, 0, 0, 0, 0, 0,
        0, 0, 0, 0, 0, 0, 0, 0, 0, 0, 0, 0, 0, 0, 0, 0, 0, 0, 0, 0,
        0, 0, 0, 0, 0, 0, 0, 0, 0, 0, 0, 0, 0, 0, 0, 3, 0, 0, 0, 3,
        0, 0, 0, 0, 0, 0, 0, 0, 0, 0, 0, 0, 0, 0, 0, 0, 0, 0, 0, 0,
        0, 0, 0, 0, 0, 0, 0, 0, 0, 0, 0, 0, 0, 0, 0, 0, 0, 0, 0, 0,
        0, 0, 0, 0, 0, 0, 0, 0, 0, 0, 0, 0, 0, 0, 0, 0, 0, 0, 0, 0,
        0, 0, 0, 0, 0, 0, 0, 0, 3, 0, 0, 0, 3, 0, 0, 0, 0, 3, 0, 0
      ]
    },
    {
      "id": 5,
      "name": "objects",
      "type": "objectgroup",
      "objects": [
        {
          "id": 1,
          "name": "base",
          "class": "base",
          "point": true,
          "x": 64,
          "y": 384,
          "properties": [{ "name": "entityId", "type": "string", "value": "base" }]
        },
        {
          "id": 2,
          "name": "cabeus",
          "class": "center",
          "point": true,
          "x": 1088,
          "y": 384,
          "properties": [{ "name": "entityId", "type": "string", "value": "cabeus" }]
        },
        {
          "id": 3,
          "name": "malapert",
          "class": "center",
          "point": true,
          "x": 1088,
          "y": 320,
          "properties": [{ "name": "entityId", "type": "string", "value": "malapert" }]
        },
        {
          "id": 4,
          "name": "de-gerlache",
          "class": "center",
          "point": true,
          "x": 1088,
          "y": 448,
          "properties": [{ "name": "entityId", "type": "string", "value": "de-gerlache" }]
        },
        {
          "id": 5,
          "name": "nobile",
          "class": "center",
          "point": true,
          "x": 256,
          "y": 768,
          "properties": [{ "name": "entityId", "type": "string", "value": "nobile" }]
        },
        {
          "id": 6,
          "name": "amundsen",
          "class": "center",
          "point": true,
          "x": 256,
          "y": 64,
          "properties": [{ "name": "entityId", "type": "string", "value": "amundsen" }]
        },
        {
          "id": 7,
          "name": "spawn-gagarin",
          "class": "roverSpawn",
          "point": true,
          "x": 64,
          "y": 384,
          "properties": [{ "name": "entityId", "type": "string", "value": "spawn-gagarin" }]
        },
        {
          "id": 8,
          "name": "spawn-leonov",
          "class": "roverSpawn",
          "point": true,
          "x": 64,
          "y": 384,
          "properties": [{ "name": "entityId", "type": "string", "value": "spawn-leonov" }]
        },
        {
          "id": 9,
          "name": "spawn-armstrong",
          "class": "roverSpawn",
          "point": true,
          "x": 64,
          "y": 384,
          "properties": [{ "name": "entityId", "type": "string", "value": "spawn-armstrong" }]
        },
        {
          "id": 10,
          "name": "spawn-collins",
          "class": "roverSpawn",
          "point": true,
          "x": 64,
          "y": 384,
          "properties": [{ "name": "entityId", "type": "string", "value": "spawn-collins" }]
        },
        {
          "id": 11,
          "name": "spawn-zvezda",
          "class": "repairSpawn",
          "point": true,
          "x": 64,
          "y": 384,
          "properties": [{ "name": "entityId", "type": "string", "value": "spawn-zvezda" }]
        }
      ]
    }
  ],
  "tilesets": [
    {
      "firstgid": 1,
      "name": "lunar-logical",
      "tilewidth": 64,
      "tileheight": 64,
      "tilecount": 3,
      "columns": 3,
      "image": "/assets/tiles/lunar-logical.png",
      "imagewidth": 192,
      "imageheight": 64,
      "margin": 0,
      "spacing": 0,
      "tiles": [
        {
          "id": 0,
          "properties": [
            { "name": "terrainType", "type": "string", "value": "normal" },
            { "name": "walkable", "type": "bool", "value": true },
            { "name": "movementCost", "type": "float", "value": 1 }
          ]
        },
        {
          "id": 1,
          "properties": [
            { "name": "terrainType", "type": "string", "value": "rough" },
            { "name": "walkable", "type": "bool", "value": true },
            { "name": "movementCost", "type": "float", "value": 1.5 },
            { "name": "hazardProfileId", "type": "string", "value": "hazard-high" }
          ]
        },
        {
          "id": 2,
          "properties": [
            { "name": "terrainType", "type": "string", "value": "blocked" },
            { "name": "walkable", "type": "bool", "value": false },
            { "name": "movementCost", "type": "float", "value": 99 }
          ]
        }
      ]
    }
  ]
}
