{
  "compressionlevel": -1,
  "height": 13,
  "infinite": false,
  "orientation": "orthogonal",
  "renderorder": "right-down",
  "tileheight": 64,
  "tilewidth": 64,
  "width": 18,
  "tiledversion": "1.12.2",
  "type": "map",
  "version": "1.10",
  "nextlayerid": 6,
  "nextobjectid": 10,
  "layers": [
    {
      "id": 1,
      "name": "background",
      "type": "imagelayer",
      "image": "/assets/maps/tranquility/background.webp"
    },
    {
      "id": 2,
      "name": "terrain",
      "type": "tilelayer",
      "width": 18,
      "height": 13,
      "data": [
        1, 1, 1, 1, 1, 1, 1, 1, 1, 1, 1, 1, 1, 1, 1, 1, 1, 1,
        1, 1, 1, 1, 1, 1, 1, 1, 1, 1, 1, 1, 1, 1, 1, 1, 1, 1,
        1, 1, 1, 1, 1, 1, 1, 1, 1, 1, 1, 1, 1, 1, 1, 1, 1, 1,
        1, 1, 1, 1, 1, 1, 1, 1, 1, 1, 1, 1, 1, 1, 1, 1, 1, 1,
        1, 1, 1, 1, 1, 1, 1, 1, 1, 1, 1, 1, 1, 1, 1, 1, 1, 1,
        1, 1, 1, 1, 1, 1, 1, 1, 1, 1, 1, 1, 1, 1, 1, 1, 1, 1,
        1, 1, 1, 1, 1, 1, 1, 1, 1, 1, 1, 1, 1, 1, 1, 1, 1, 1,
        1, 1, 1, 1, 1, 1, 1, 1, 1, 1, 1, 1, 1, 1, 1, 1, 1, 1,
        1, 1, 1, 1, 1, 1, 1, 1, 1, 1, 1, 1, 1, 1, 1, 1, 1, 1,
        1, 1, 1, 1, 1, 1, 1, 1, 1, 1, 1, 1, 1, 1, 1, 1, 1, 1,
        1, 1, 1, 1, 1, 1, 1, 1, 1, 1, 1, 1, 1, 1, 1, 1, 1, 1,
        1, 1, 1, 1, 1, 1, 1, 1, 1, 1, 1, 1, 1, 1, 1, 1, 1, 1,
        1, 1, 1, 1, 1, 1, 1, 1, 1, 1, 1, 1, 1, 1, 1, 1, 1, 1
      ]
    },
    {
      "id": 3,
      "name": "hazards",
      "type": "tilelayer",
      "width": 18,
      "height": 13,
      "data": [
        0, 0, 0, 0, 0, 0, 0, 0, 0, 0, 0, 0, 0, 0, 0, 0, 0, 0,
        0, 0, 0, 0, 0, 0, 0, 0, 0, 0, 0, 0, 0, 0, 0, 0, 0, 0,
        0, 0, 0, 0, 0, 0, 0, 0, 0, 0, 0, 0, 0, 0, 0, 0, 0, 0,
        0, 0, 0, 0, 0, 0, 0, 0, 0, 0, 0, 0, 0, 0, 0, 0, 0, 0,
        0, 0, 0, 0, 0, 0, 0, 0, 0, 0, 0, 0, 0, 0, 0, 0, 0, 0,
        0, 0, 0, 0, 0, 0, 2, 2, 2, 2, 2, 2, 2, 0, 0, 0, 0, 0,
        0, 0, 0, 0, 0, 0, 2, 2, 2, 2, 2, 2, 2, 0, 0, 0, 0, 0,
        0, 0, 0, 0, 0, 0, 2, 2, 2, 2, 2, 2, 2, 0, 0, 0, 0, 0,
        0, 0, 0, 0, 0, 0, 0, 0, 0, 0, 0, 0, 0, 0, 0, 0, 0, 0,
        0, 0, 0, 0, 0, 0, 0, 0, 0, 0, 0, 0, 0, 0, 0, 0, 0, 0,
        0, 0, 0, 0, 0, 0, 0, 0, 0, 0, 0, 0, 0, 0, 0, 0, 0, 0,
        0, 0, 0, 0, 0, 0, 0, 0, 0, 0, 0, 0, 0, 0, 0, 0, 0, 0,
        0, 0, 0, 0, 0, 0, 0, 0, 0, 0, 0, 0, 0, 0, 0, 0, 0, 0
      ]
    },
    {
      "id": 4,
      "name": "obstacles",
      "type": "tilelayer",
      "width": 18,
      "height": 13,
      "data": [
        0, 0, 0, 0, 0, 0, 0, 0, 0, 0, 0, 0, 0, 0, 0, 0, 0, 0,
        3, 0, 0, 0, 3, 0, 0, 0, 0, 0, 0, 0, 0, 0, 0, 0, 0, 0,
        0, 0, 0, 3, 0, 0, 0, 0, 0, 0, 0, 0, 0, 0, 0, 0, 0, 0,
        0, 0, 0, 0, 0, 0, 0, 0, 0, 0, 0, 0, 0, 0, 0, 0, 0, 0,
        0, 0, 0, 0, 0, 0, 0, 0, 0, 0, 0, 0, 0, 0, 0, 0, 3, 0,
        0, 0, 0, 0, 0, 0, 0, 0, 0, 0, 0, 0, 0, 0, 0, 0, 0, 0,
        3, 0, 0, 0, 0, 0, 0, 0, 0, 0, 0, 0, 0, 0, 0, 0, 0, 0,
        0, 3, 0, 0, 0, 0, 0, 0, 0, 0, 0, 0, 0, 0, 0, 0, 0, 0,
        0, 0, 3, 0, 0, 0, 0, 0, 0, 0, 0, 0, 0, 0, 0, 0, 0, 0,
        0, 0, 0, 0, 0, 0, 0, 0, 0, 0, 0, 0, 0, 0, 0, 0, 0, 0,
        0, 0, 0, 0, 0, 0, 0, 0, 0, 0, 0, 0, 0, 0, 0, 0, 0, 3,
        0, 0, 0, 0, 0, 0, 0, 0, 0, 0, 0, 0, 0, 0, 0, 0, 0, 0,
        0, 0, 0, 0, 0, 0, 0, 0, 0, 0, 3, 0, 0, 0, 0, 0, 3, 0
      ]
    },
    {
      "id": 5,
      "name": "objects",
      "type": "objectgroup",
      "objects": [
        {
          "id": 1,
          "name": "base",
          "class": "base",
          "point": true,
          "x": 576,
          "y": 704,
          "properties": [{ "name": "entityId", "type": "string", "value": "base" }]
        },
        {
          "id": 2,
          "name": "vostok",
          "class": "center",
          "point": true,
          "x": 576,
          "y": 64,
          "properties": [{ "name": "entityId", "type": "string", "value": "vostok" }]
        },
        {
          "id": 3,
          "name": "zarya",
          "class": "center",
          "point": true,
          "x": 512,
          "y": 64,
          "properties": [{ "name": "entityId", "type": "string", "value": "zarya" }]
        },
        {
          "id": 4,
          "name": "mir",
          "class": "center",
          "point": true,
          "x": 640,
          "y": 64,
          "properties": [{ "name": "entityId", "type": "string", "value": "mir" }]
        },
        {
          "id": 5,
          "name": "luna",
          "class": "center",
          "point": true,
          "x": 1024,
          "y": 704,
          "properties": [{ "name": "entityId", "type": "string", "value": "luna" }]
        },
        {
          "id": 6,
          "name": "spawn-sagan",
          "class": "roverSpawn",
          "point": true,
          "x": 576,
          "y": 704,
          "properties": [{ "name": "entityId", "type": "string", "value": "spawn-sagan" }]
        },
        {
          "id": 7,
          "name": "spawn-tereshkova",
          "class": "roverSpawn",
          "point": true,
          "x": 576,
          "y": 704,
          "properties": [{ "name": "entityId", "type": "string", "value": "spawn-tereshkova" }]
        },
        {
          "id": 8,
          "name": "spawn-apollo",
          "class": "roverSpawn",
          "point": true,
          "x": 576,
          "y": 704,
          "properties": [{ "name": "entityId", "type": "string", "value": "spawn-apollo" }]
        },
        {
          "id": 9,
          "name": "spawn-buran",
          "class": "repairSpawn",
          "point": true,
          "x": 576,
          "y": 704,
          "properties": [{ "name": "entityId", "type": "string", "value": "spawn-buran" }]
        }
      ]
    }
  ],
  "tilesets": [
    {
      "firstgid": 1,
      "name": "lunar-logical",
      "tilewidth": 64,
      "tileheight": 64,
      "tilecount": 3,
      "columns": 3,
      "image": "/assets/tiles/lunar-logical.png",
      "imagewidth": 192,
      "imageheight": 64,
      "margin": 0,
      "spacing": 0,
      "tiles": [
        {
          "id": 0,
          "properties": [
            { "name": "terrainType", "type": "string", "value": "normal" },
            { "name": "walkable", "type": "bool", "value": true },
            { "name": "movementCost", "type": "float", "value": 1 }
          ]
        },
        {
          "id": 1,
          "properties": [
            { "name": "terrainType", "type": "string", "value": "rough" },
            { "name": "walkable", "type": "bool", "value": true },
            { "name": "movementCost", "type": "float", "value": 1.5 },
            { "name": "hazardProfileId", "type": "string", "value": "hazard-high" }
          ]
        },
        {
          "id": 2,
          "properties": [
            { "name": "terrainType", "type": "string", "value": "blocked" },
            { "name": "walkable", "type": "bool", "value": false },
            { "name": "movementCost", "type": "float", "value": 99 }
          ]
        }
      ]
    }
  ]
}
